autogermania/dist/img/svg/unknown-material.svg

<svg xmlns="http://www.w3.org/2000/svg" width="21" height="25"><path fill-rule="evenodd" d="M20.773 6.813c-.203.24-.407.481-.597.734a10.845 10.845 0 00-1.637 3.108 8.903 8.903 0 00-.427 3.315c.032.578.082 1.152.193 1.719.111.567.272 1.115.51 1.635.396.866.966 1.557 1.724 2.059.042.028.087.056.127.086a.881.881 0 01.263 1.038c-.026.064-.059.125-.09.186-.473.936-.947 1.871-1.421 2.805-.035.068-.068.138-.109.201-.186.284-.504.407-.812.316a1.575 1.575 0 01-.162-.06 11.287 11.287 0 00-2.294-.721 7.476 7.476 0 00-1.807-.157 4.993 4.993 0 00-1.691.354 3.968 3.968 0 00-1.669 1.301c-.037.048-.071.1-.111.143-.159.163-.358.165-.519.007-.032-.031-.058-.069-.085-.105-.625-.852-1.442-1.351-2.41-1.57a5.91 5.91 0 00-1.828-.109c-1.109.096-2.173.402-3.209.835-.066.027-.133.057-.201.078-.325.1-.651-.033-.839-.342-.028-.046-.052-.094-.076-.141L.143 20.662a1.056 1.056 0 01-.14-.462c-.007-.314.106-.559.34-.739.023-.018.048-.033.073-.049.951-.618 1.596-1.513 1.988-2.638a8.584 8.584 0 00.381-1.63c.074-.526.102-1.056.114-1.587a8.698 8.698 0 00-.599-3.352A11.116 11.116 0 00.322 6.919c-.039-.046-.08-.089-.118-.136a.89.89 0 01-.045-1.076l.053-.073c.487-.64.976-1.281 1.462-1.925.137-.181.301-.31.518-.339a.957.957 0 01.233.003c.432.057.866.083 1.3.059a4.471 4.471 0 001.319-.265c1.123-.42 1.887-1.246 2.314-2.453.026-.073.045-.149.075-.219.125-.291.332-.461.628-.489.071-.007.143-.005.214-.005h4.445c.071 0 .143-.002.214.004.296.027.504.194.632.484.021.049.035.103.052.153.485 1.431 1.413 2.311 2.764 2.655.609.156 1.227.174 1.848.111l.382-.044a.72.72 0 01.625.236c.036.037.067.08.099.122l1.436 1.89c.027.036.055.072.08.11a.811.811 0 01.147.471.906.906 0 01-.226.62zM18.703 4.2l-.525.048a5.78 5.78 0 01-2.057-.16 4.376 4.376 0 01-2.127-1.278 5.092 5.092 0 01-1.048-1.749c-.029-.077-.037-.168-.102-.224-.268-.024-4.533-.01-4.714.019l-.084.227c-.535 1.413-1.448 2.39-2.777 2.882-.788.292-1.601.356-2.425.291l-.277-.026-.262-.024C1.943 4.638.874 6.058.783 6.229l.143.169c.968 1.148 1.732 2.435 2.229 3.905.31.915.49 1.859.505 2.837.008.515-.008 1.03-.054 1.544-.059.67-.166 1.329-.35 1.972-.416 1.455-1.175 2.625-2.374 3.429-.035.023-.066.053-.095.075.003.03 0 .047.007.059.498.983.997 1.965 1.496 2.946.003.007.011.01.017.014.006.004.013.006.029.013.019-.006.045-.014.071-.025a11.18 11.18 0 013.268-.867c.698-.075 1.392-.077 2.085.06 1.015.201 1.909.661 2.645 1.465.029.032.062.06.091.087.015-.007.023-.009.028-.014.047-.048.094-.094.14-.143a4.651 4.651 0 011.342-.985 5.265 5.265 0 011.773-.49 7.831 7.831 0 012.214.103c.867.154 1.708.412 2.528.758l.152.062c.117-.162 1.471-2.838 1.538-3.032-.003-.007-.005-.016-.01-.02-.059-.044-.118-.089-.177-.131a5.57 5.57 0 01-1.822-2.16 8.028 8.028 0 01-.628-1.91 12.716 12.716 0 01-.234-2.441c-.003-.335.007-.672.036-1.006.071-.804.25-1.582.517-2.336a12.031 12.031 0 012.171-3.755l.172-.201c-.517-.676-1.024-1.349-1.533-2.011zm-6.037 9.087c-.517.472-.838.85-.963 1.137-.125.287-.181.798-.169 1.538h-2.22a57.134 57.134 0 01-.009-.642c0-.789.119-1.437.357-1.945.238-.512.716-1.083 1.429-1.721.713-.635 1.141-1.053 1.278-1.251.216-.31.324-.655.324-1.03 0-.522-.19-.968-.571-1.343-.38-.372-.891-.557-1.536-.557-.621 0-1.141.195-1.56.583-.416.388-.704.981-.861 1.776l-2.244-.306a4.232 4.232 0 011.325-2.904c.823-.795 1.899-1.192 3.236-1.192 1.403 0 2.519.404 3.352 1.208.828.806 1.244 1.741 1.244 2.813 0 .59-.154 1.15-.457 1.678-.306.528-.957 1.249-1.955 2.158zm-.906 6.282H9.314v-2.682h2.446v2.682z"/></svg>

<svg 
 xmlns="http://www.w3.org/2000/svg"
 xmlns:xlink="http://www.w3.org/1999/xlink"
 width="21px" height="25px">
<path fill-rule="evenodd"  fill="rgb(0, 0, 0)"
 d="M20.773,6.813 C20.570,7.053 20.366,7.294 20.176,7.547 C19.475,8.484 18.917,9.512 18.539,10.655 C18.186,11.727 18.048,12.832 18.112,13.970 C18.144,14.548 18.194,15.122 18.305,15.689 C18.416,16.256 18.577,16.804 18.815,17.324 C19.211,18.190 19.781,18.881 20.539,19.383 C20.581,19.411 20.626,19.439 20.666,19.469 C20.975,19.705 21.083,20.131 20.929,20.507 C20.903,20.571 20.870,20.632 20.839,20.693 C20.366,21.629 19.892,22.564 19.418,23.498 C19.383,23.566 19.350,23.636 19.309,23.699 C19.123,23.983 18.805,24.106 18.497,24.015 C18.442,23.998 18.388,23.978 18.335,23.955 C17.591,23.634 16.828,23.389 16.041,23.234 C15.443,23.116 14.841,23.048 14.234,23.077 C13.655,23.104 13.088,23.206 12.543,23.431 C11.882,23.705 11.325,24.136 10.874,24.732 C10.837,24.780 10.803,24.832 10.763,24.875 C10.604,25.038 10.405,25.040 10.244,24.882 C10.212,24.851 10.186,24.813 10.159,24.777 C9.534,23.925 8.717,23.426 7.749,23.207 C7.145,23.070 6.536,23.045 5.921,23.098 C4.812,23.194 3.748,23.500 2.712,23.933 C2.646,23.960 2.579,23.990 2.511,24.011 C2.186,24.111 1.860,23.978 1.672,23.669 C1.644,23.623 1.620,23.575 1.596,23.528 C1.112,22.572 0.628,21.617 0.143,20.662 C0.069,20.517 0.007,20.371 0.003,20.200 C-0.004,19.886 0.109,19.641 0.343,19.461 C0.366,19.443 0.391,19.428 0.416,19.412 C1.367,18.794 2.012,17.899 2.404,16.774 C2.588,16.247 2.706,15.701 2.785,15.144 C2.859,14.618 2.887,14.088 2.899,13.557 C2.925,12.392 2.713,11.276 2.300,10.205 C1.827,8.975 1.156,7.887 0.322,6.919 C0.283,6.873 0.242,6.830 0.204,6.783 C-0.051,6.467 -0.069,6.045 0.159,5.707 C0.176,5.682 0.194,5.658 0.212,5.634 C0.699,4.994 1.188,4.353 1.674,3.709 C1.811,3.528 1.975,3.399 2.192,3.370 C2.268,3.361 2.348,3.363 2.425,3.373 C2.857,3.430 3.291,3.456 3.725,3.432 C4.174,3.406 4.617,3.327 5.044,3.167 C6.167,2.747 6.931,1.921 7.358,0.714 C7.384,0.641 7.403,0.565 7.433,0.495 C7.558,0.204 7.765,0.034 8.061,0.006 C8.132,-0.001 8.204,0.001 8.275,0.001 C9.757,0.000 11.239,0.000 12.720,0.001 C12.791,0.001 12.863,-0.001 12.934,0.005 C13.230,0.032 13.438,0.199 13.566,0.489 C13.587,0.538 13.601,0.592 13.618,0.642 C14.103,2.073 15.031,2.953 16.382,3.297 C16.991,3.453 17.609,3.471 18.230,3.408 C18.358,3.394 18.485,3.378 18.612,3.364 C18.854,3.337 19.061,3.418 19.237,3.600 C19.273,3.637 19.304,3.680 19.336,3.722 C19.815,4.352 20.293,4.982 20.772,5.612 C20.799,5.648 20.827,5.684 20.852,5.722 C20.951,5.871 21.005,6.037 20.999,6.193 C20.999,6.455 20.915,6.645 20.773,6.813 ZM18.703,4.200 C18.518,4.217 18.348,4.232 18.178,4.248 C17.485,4.315 16.798,4.268 16.121,4.088 C15.309,3.871 14.592,3.457 13.994,2.810 C13.531,2.309 13.185,1.723 12.946,1.061 C12.917,0.984 12.909,0.893 12.844,0.837 C12.576,0.813 8.311,0.827 8.130,0.856 C8.104,0.926 8.075,1.004 8.046,1.083 C7.511,2.496 6.598,3.473 5.269,3.965 C4.481,4.257 3.668,4.321 2.844,4.256 C2.752,4.248 2.660,4.239 2.567,4.230 C2.476,4.222 2.385,4.213 2.305,4.206 C1.943,4.638 0.874,6.058 0.783,6.229 C0.830,6.284 0.878,6.342 0.926,6.398 C1.894,7.546 2.658,8.833 3.155,10.303 C3.465,11.218 3.645,12.162 3.660,13.140 C3.668,13.655 3.652,14.170 3.606,14.684 C3.547,15.354 3.440,16.013 3.256,16.656 C2.840,18.111 2.081,19.281 0.882,20.085 C0.847,20.108 0.816,20.138 0.787,20.160 C0.790,20.190 0.787,20.207 0.794,20.219 C1.292,21.202 1.791,22.184 2.290,23.165 C2.293,23.172 2.301,23.175 2.307,23.179 C2.313,23.183 2.320,23.185 2.336,23.192 C2.355,23.186 2.381,23.178 2.407,23.167 C3.460,22.712 4.548,22.420 5.675,22.300 C6.373,22.225 7.067,22.223 7.760,22.360 C8.775,22.561 9.669,23.021 10.405,23.825 C10.434,23.857 10.467,23.885 10.496,23.912 C10.511,23.905 10.519,23.903 10.524,23.898 C10.571,23.850 10.618,23.804 10.664,23.755 C11.059,23.340 11.507,23.013 12.006,22.770 C12.572,22.495 13.166,22.344 13.779,22.280 C14.521,22.201 15.259,22.252 15.993,22.383 C16.860,22.537 17.701,22.795 18.521,23.141 C18.573,23.163 18.625,23.183 18.673,23.203 C18.790,23.041 20.144,20.365 20.211,20.171 C20.208,20.164 20.206,20.155 20.201,20.151 C20.142,20.107 20.083,20.062 20.024,20.020 C19.246,19.474 18.638,18.754 18.202,17.860 C17.909,17.256 17.710,16.616 17.574,15.950 C17.411,15.146 17.346,14.331 17.340,13.509 C17.337,13.174 17.347,12.837 17.376,12.503 C17.447,11.699 17.626,10.921 17.893,10.167 C18.392,8.760 19.132,7.518 20.064,6.412 C20.117,6.349 20.171,6.287 20.236,6.211 C19.719,5.535 19.212,4.862 18.703,4.200 ZM12.666,13.287 C12.149,13.759 11.828,14.137 11.703,14.424 C11.578,14.711 11.522,15.222 11.534,15.962 L9.314,15.962 C9.308,15.610 9.305,15.398 9.305,15.320 C9.305,14.531 9.424,13.883 9.662,13.375 C9.900,12.863 10.378,12.292 11.091,11.654 C11.804,11.019 12.232,10.601 12.369,10.403 C12.585,10.093 12.693,9.748 12.693,9.373 C12.693,8.851 12.503,8.405 12.122,8.030 C11.742,7.658 11.231,7.473 10.586,7.473 C9.965,7.473 9.445,7.668 9.026,8.056 C8.610,8.444 8.322,9.037 8.165,9.832 L5.921,9.526 C5.983,8.385 6.426,7.417 7.246,6.622 C8.069,5.827 9.145,5.430 10.482,5.430 C11.885,5.430 13.001,5.834 13.834,6.638 C14.662,7.444 15.078,8.379 15.078,9.451 C15.078,10.041 14.924,10.601 14.621,11.129 C14.315,11.657 13.664,12.378 12.666,13.287 ZM11.760,19.569 L9.314,19.569 L9.314,16.887 L11.760,16.887 L11.760,19.569 Z"/>
</svg>
